X:1
T:YANKEE DOODLE
M:C|
L:1/8
Q:80
C:
S:March
K:HP
|: A/2B/2 | \
{Gdc}d{gdc}d/2{g}e/2f | \
{Gdc}d{gdc}d{gcd}c{e}A |
{Gdc}d{gdc}d{g}ef | \
{Gdc}d2{gcd}c{e}A | \
{Gdc}d{gdc}d{g}ef |
{gf}g3/2f/2{gef}ed | \
{gcd}c{e}A{g}Bc | \
{Gdc}d2{gdc}d2 ::
{g}B2{GdGe}BA | \
{g}B3/2c/2{Gdc}d2 | \
{g}A2{GdGe}AG |
{g}A2{GdGe}A2 | \
{g}B2{GdGe}BA | \
{g}B3/2c/2{Gdc}d3/2B/2 |
{g}Ad{gcd}ce | \
{Gdc}d2{gdc}d2 :|
